X:1
T: The Short Apron
C:
R:Jig
Q:180
K:F
M:6/8
L:1/16
|:f2|c2A2A2 f2A2A2|a2A2A2 c2G2G2|c2A2A2 f2A2A2|a2A2c2 d4f2|
c2A2A2 f2A2A2|a2A2A2 c2G2G2|A2G2F2 f2g2a2|g2e2^c2 d4:|
|:c2|A2c2d2 c2A2F2|ABc2A2 G4B2|A2c2d2 c2A2F2|f4e2 d4c2|
A2c2d2 c2A2F2|ABc2A2 G4B2|A2G2F2 f2g2a2|g2e2^c2 d4:|
